X:778
T:O'er Bogie
R:Reel
B:The Athole Collection
M:C|
L:1/8
K:C
A|c2cA cGGA|cdcA G2Gc|Addc dega|gedc A2GA|c2cA cGGA|
cdcA GAcG|Addc dega|gedc A2GA||c2ge c2ge|cdcA GAcG|
Addc dega|gedc A2GA|cgeg cgeg|cdcA GAcG|Addc dega|gedc A2G||

